facebook.8ba94e0d.svg

<svg xmlns="http://www.w3.org/2000/svg" width="24" height="24" viewBox="0 0 24 24" fill="none">
  <g clip-path="url(#clip0_320_220)">
    <path d="M8.80699 4.64899C8.80699 5.2538 8.80699 7.9533 8.80699 7.9533H6.38992V11.9938H8.80699V24.0009H13.7722V11.9942H17.104C17.104 11.9942 17.4161 10.0568 17.5673 7.93841C17.1337 7.93841 13.7909 7.93841 13.7909 7.93841C13.7909 7.93841 13.7909 5.58776 13.7909 5.17573C13.7909 4.76282 14.3323 4.2074 14.8674 4.2074C15.4014 4.2074 16.5286 4.2074 17.5726 4.2074C17.5726 3.65727 17.5726 1.75647 17.5726 0.000976577C16.1789 0.000976577 14.5933 0.000976577 13.8944 0.000976577C8.68426 0.000697581 8.80699 4.04524 8.80699 4.64899Z" fill="black"/>
  </g>
  <defs>
    <clipPath id="clip0_320_220">
      <rect width="23.9626" height="24" fill="white"/>
    </clipPath>
  </defs>
</svg>

<svg xmlns="http://www.w3.org/2000/svg" width="24" height="24" fill="none" xmlns:v="https://vecta.io/nano"><g clip-path="url(#A)"><path d="M8.807 4.649v3.304H6.39v4.041h2.417v12.007h4.965V11.994h3.332l.463-4.056h-3.776V5.176c0-.413.541-.968 1.076-.968h2.705V.001h-3.678c-5.21 0-5.087 4.044-5.087 4.648z" fill="#000"/></g><defs><clipPath id="A"><path fill="#fff" d="M0 0h23.963v24H0z"/></clipPath></defs></svg>
